svgs/sharp-solid/file-csv.svg

<svg xmlns="http://www.w3.org/2000/svg" viewBox="0 0 512 512"><!--! Font Awesome Pro 6.6.0 by @fontawesome - https://fontawesome.com License - https://fontawesome.com/license (Commercial License) Copyright 2024 Fonticons, Inc. --><path d="M0 0L224 0l0 160 160 0 0 144-272 0 0 208L0 512 0 0zM384 128l-128 0L256 0 384 128zM200 352l16 0c22.1 0 40 17.9 40 40l0 8 0 16-32 0 0-16 0-8c0-4.4-3.6-8-8-8l-16 0c-4.4 0-8 3.6-8 8l0 80c0 4.4 3.6 8 8 8l16 0c4.4 0 8-3.6 8-8l0-8 0-16 32 0 0 16 0 8c0 22.1-17.9 40-40 40l-16 0c-22.1 0-40-17.9-40-40l0-80c0-22.1 17.9-40 40-40zm133.1 0l34.9 0 16 0 0 32-16 0-34.9 0c-7.2 0-13.1 5.9-13.1 13.1c0 5.2 3 9.9 7.8 12l37.4 16.6c16.3 7.2 26.8 23.4 26.8 41.2c0 24.9-20.2 45.1-45.1 45.1L304 512l-16 0 0-32 16 0 42.9 0c7.2 0 13.1-5.9 13.1-13.1c0-5.2-3-9.9-7.8-12l-37.4-16.6c-16.3-7.2-26.8-23.4-26.8-41.2c0-24.9 20.2-45.1 45.1-45.1zM448 352l0 16 0 35c0 17.3 3.1 34.4 9.2 50.6l6.8 18.2 6.8-18.2c6.1-16.2 9.2-33.3 9.2-50.6l0-35 0-16 32 0 0 16 0 35c0 21.1-3.8 42-11.2 61.8L487 501.6 483.1 512 472 512l-16 0-11.1 0L441 501.6l-13.8-36.8C419.8 445 416 424.1 416 403l0-35 0-16 32 0z"/></svg>

<svg xmlns="http://www.w3.org/2000/svg" viewBox="0 0 512 512"><!--! Font Awesome Pro 6.4.0 by @fontawesome - https://fontawesome.com License - https://fontawesome.com/license (Commercial License) Copyright 2023 Fonticons, Inc. --><path d="M0 0H224V160H384V304H112V512H0V0zM384 128H256V0L384 128zM200 352h16c22.1 0 40 17.9 40 40v8 16H224V400v-8c0-4.4-3.6-8-8-8H200c-4.4 0-8 3.6-8 8v80c0 4.4 3.6 8 8 8h16c4.4 0 8-3.6 8-8v-8V448h32v16 8c0 22.1-17.9 40-40 40H200c-22.1 0-40-17.9-40-40V392c0-22.1 17.9-40 40-40zm133.1 0H368h16v32H368 333.1c-7.2 0-13.1 5.9-13.1 13.1c0 5.2 3 9.9 7.8 12l37.4 16.6c16.3 7.2 26.8 23.4 26.8 41.2c0 24.9-20.2 45.1-45.1 45.1H304 288V480h16 42.9c7.2 0 13.1-5.9 13.1-13.1c0-5.2-3-9.9-7.8-12l-37.4-16.6c-16.3-7.2-26.8-23.4-26.8-41.2c0-24.9 20.2-45.1 45.1-45.1zM448 352v16 61.1l16 42.7 16-42.7V368 352h32v16 64 2.9l-1 2.7-24 64L483.1 512H472 456 444.9L441 501.6l-24-64-1-2.7V432 368 352h32z"/></svg>
